X:1
T:Intrada 1
C:Johann Pezel
Z:Transcribed by Frank Nordberg - http://www.musicaviva.com
F:http://abc.musicaviva.com/tunes/pezel-johann/pezel-intrada-01.abc
V:1 Program 1 56 %Trumpet
V:2 Program 1 56 %Trumpet
V:3 Program 1 56 %Trumpet
V:4 Program 1 56 bass %Trumpet
V:5 Program 1 56 bass %Trumpet
M:C
L:1/8
Q:1/4=108
K:C
V:1
g4 z ggg|g2 ^f>f gddd|d4 z ddd|d2 ^c>c dA2B|
V:2
e4 z eed|c3c BBBB|A4 z BBA|G3G ^F3F|
V:3
G4 z GGG|A3A GGGD|^F4 z DDD|E3E^F2D2|
V:4
C4 z CCD|E2D2 DDDD|D4 z B,G,A,|B,2A,2 A,3^F,|
V:5
C,4 z C,C,B,,|A,,2D,2 G,,G,,G,,G,,|^F,,4 z G,,G,,F,,|E,,2A,,2D,4-|
%
V:1
^G2A2A2G>G|A2c3dB2|A4G4::z8|z8|
V:2
E4D3D|E2A4G2|A3^FG4::z8|z8|
V:3
B,2C2D2B,>B,|C2E2D4|E2D2D4::z8|G3F E/D/E/F/ ED|
V:4
^G,2E,2B,2G,>G,|E,2E,2A,2B,2|C2A,2B,4::D3C B,/A,/B,/C/ B,A,|G,3 A,/B,/ C/B,/C/D/ CB,|
V:5
D,2C,2B,,2E,,2|A,,4^F,,2G,,2|C,,2D,,2G,,4::z4 G,3F,|E,/D,/E,/F,/ E,D, C,3D,/E,/|
%
V:1
z8|z4 g3f|e/d/e/f/ ed c2B2|A4G4:|
V:2
z4 d3c|B/A/B/c/ BA G3A/B/|c/B/c/d/ cB A2G2-|G3^FG4:|
V:3
C/B,/C/D/ CD/E/F3E|D/C/D/E/ DE/F/ G2 z2|z2 z D ^F2 G2|E2D2D4:|
V:4
A,/G,/A,/B,/ A,B,/C/ D2 z2|B,3 C/D/E2 z2|G,3 A,/B,/ C2D2|CB,A,2 B,4:|
V:5
F,3E, D,3 E,/F,/|G,3F, E,/D,/E,/F,/ E,D,|C,3G,,A,,2B,,2|C,2D,2G,,4:|
%
V:1
M:3/4
L:1/8
Q:3/4=54
|:d3d dd|dc/d/ Adcd|B4B2|z6|
V:2
M:3/4
L:1/8
Q:3/4=54
|:B3B BB|A4A2|G4G2|z6|
V:3
M:3/4
L:1/8
Q:3/4=54
|:G3G GG|A4D2|GF/G/ DGFG|E4E2|
V:4
M:3/4
L:1/8
Q:3/4=54
|:D3B, G,B,|D4D2|D4D2|CB,/C/ G,CB,C|
V:5
M:3/4
L:1/8
Q:3/4=54
|:G,3G, G,G,|^F,4F,2|G,4G,2|C,4C,2|
%
V:1
z6|gf/g/ dgfg|e4e2|d2d4|c6:|
V:2
fe/f/ cfef|B4B2|c4c2|c2c3B|c6:|
V:3
C2F3E|D4D2|E4E2|F2D2F2|E6:|
V:4
A,4A,2|B,4 z2|CB,/C/ G,CB,C|A,2G,4|G,6:|
V:5
F,4F,2|G,4G,2|A,G,/A,/ E,A,G,A,|F,D,G,2G,,2|C,6:|
W:
W:
W:  From Musica Viva - http://www.musicaviva.com
W:  the Internet center for free sheet music downloads.
